; generated by PrusaSlicer 2.4.2+win64 on 2022-05-12 at 09:18:06 UTC

; 

; external perimeters extrusion width = 0.45mm
; perimeters extrusion width = 0.45mm
; infill extrusion width = 0.45mm
; solid infill extrusion width = 0.45mm
; top infill extrusion width = 0.40mm
; first layer extrusion width = 0.42mm

; external perimeters extrusion width = 0.45mm
; perimeters extrusion width = 0.45mm
; infill extrusion width = 0.45mm
; solid infill extrusion width = 0.45mm
; top infill extrusion width = 0.40mm
; first layer extrusion width = 0.42mm

M73 P0 R37
M73 Q0 S38
M201 X1000 Y1000 Z200 E5000 ; sets maximum accelerations, mm/sec^2
M203 X200 Y200 Z12 E120 ; sets maximum feedrates, mm / sec
M204 P1250 R1250 T1250 ; sets acceleration (P, T) and retract acceleration (R), mm/sec^2
M205 X8.00 Y8.00 Z0.40 E4.50 ; sets the jerk limits, mm/sec
M205 S0 T0 ; sets the minimum extruding and travel feed rate, mm/sec
M107
;TYPE:Custom
M862.3 P "MK3S" ; printer model check
M862.1 P0.4 ; nozzle diameter check
M115 U3.10.1 ; tell printer latest fw version
G90 ; use absolute coordinates
M83 ; extruder relative mode
M104 S215 ; set extruder temp
M140 S60 ; set bed temp
M190 S60 ; wait for bed temp
M109 S215 ; wait for extruder temp
G28 W ; home all without mesh bed level
G80 ; mesh bed leveling
G1 Z0.2 F720
G1 Y-3 F1000 ; go outside print area
G92 E0
G1 X60 E9 F1000 ; intro line
G1 X100 E12.5 F1000 ; intro line
G92 E0
M221 S95

; Don't change E values below. Excessive value can damage the printer.
M907 E430 ; set extruder motor current
G21 ; set units to millimeters
G90 ; use absolute coordinates
M83 ; use relative distances for extrusion
M900 K0.05 ; Filament gcode LA 1.5
M900 K30 ; Filament gcode LA 1.0
M107
;LAYER_CHANGE
;Z:0.2
;HEIGHT:0.2
;BEFORE_LAYER_CHANGE
G92 E0.0
;0.2


G1 E-.8 F2100
G1 Z.4 F720
;AFTER_LAYER_CHANGE
;0.2
G1 X63.636 Y38.164 F10800
G1 Z.2 F720
G1 E.8 F2100
M204 S800
;TYPE:Skirt/Brim
;WIDTH:0.42
G1 F1200
G1 X64.106 Y37.538 E.02455
G1 X66.324 Y35.075 E.10393
G1 X67.091 Y34.384 E.03235
G1 X69.773 Y32.436 E.10393
G1 X70.666 Y31.92 E.03233
G1 X73.694 Y30.572 E.10393
G1 X74.435 Y30.318 E.02456
G1 X77.918 Y29.564 E.11173
G1 X78.925 Y29.456 E.03176
G1 X120.645 Y29.174 E1.30814
G1 X121.423 Y29.269 E.02455
G1 X124.665 Y29.958 E.10393
G1 X125.646 Y30.277 E.03235
G1 X128.675 Y31.625 E.10393
G1 X129.359 Y32.005 E.02455
G1 X132.249 Y34.089 E.11172
G1 X132.84 Y34.604 E.02456
G1 X135.391 Y37.436 E.11951
G1 X135.84 Y38.077 E.02455
G1 X137.498 Y40.948 E.10393
G1 X137.917 Y41.89 E.03235
G1 X138.942 Y45.043 E.10393
G1 X139.117 Y45.806 E.02455
G1 X139.516 Y49.597 E.11951
G1 X139.503 Y50.38 E.02455
M73 Q0 S37
G1 X139.156 Y53.677 E.10393
G1 X138.942 Y54.686 E.03234
G1 X137.917 Y57.838 E.10393
G1 X137.611 Y58.559 E.02456
G1 X135.705 Y61.86 E.11952
G1 X135.234 Y62.486 E.02455
G1 X133.016 Y64.949 E.10393
G1 X132.249 Y65.639 E.03235
G1 X129.568 Y67.588 E.10393
G1 X128.675 Y68.103 E.03233
G1 X125.646 Y69.452 E.10393
G1 X124.906 Y69.706 E.02456
G1 X121.423 Y70.46 E.11173
G1 X120.415 Y70.567 E.03176
G1 X82.277 Y70.862 E1.19585
G1 X78.944 Y70.862 E.10451
G1 X78.164 Y70.794 E.02455
G1 X74.675 Y70.066 E.11172
G1 X73.694 Y69.747 E.03235
G1 X70.444 Y68.285 E.11172
G1 X69.773 Y67.883 E.02455
G1 X67.091 Y65.934 E.10393
G1 X66.324 Y65.244 E.03235
G1 X63.95 Y62.587 E.11172
G1 X63.5 Y61.946 E.02455
G1 X61.73 Y58.854 E.11173
G1 X61.423 Y58.133 E.02456
G1 X60.335 Y54.74 E.11172
G1 X60.184 Y53.972 E.02455
G1 X59.825 Y50.427 E.11172
G1 X59.838 Y49.644 E.02455
G1 X60.223 Y46.101 E.11172
G1 X60.399 Y45.338 E.02455
G1 X61.423 Y42.186 E.10393
G1 X61.843 Y41.243 E.03235
G1 X63.606 Y38.216 E.10984
M204 S1000
;WIPE_START
G1 F8640
G1 X64.106 Y37.538 E-.19456
G1 X65.745 Y35.718 E-.56544
;WIPE_END
G1 E-.04 F2100
G1 Z.6 F720
G1 X101.075 Y45.864 F10800
G1 Z.2 F720
G1 E.8 F2100
M204 S800
G1 F1200
G1 X102.279 Y42.31 E.11766
G1 X104.183 Y39.087 E.11737
G1 X106.71 Y36.325 E.11737
G1 X109.785 Y34.121 E.11862
G1 X113.211 Y32.617 E.11733
G1 X116.873 Y31.849 E.1173
G1 X120.627 Y31.852 E.1177
G1 X124.616 Y32.732 E.1281
G1 X128.053 Y34.331 E.11885
G1 X131.079 Y36.606 E.11868
G1 X133.558 Y39.451 E.11833
G1 X135.399 Y42.759 E.11871
G1 X136.513 Y46.378 E.11872
G1 X136.849 Y50.147 E.11865
G1 X136.405 Y53.861 E.11728
G1 X135.22 Y57.377 E.11632
G1 X133.325 Y60.602 E.11727
G1 X130.837 Y63.344 E.11611
G1 X127.842 Y65.522 E.11611
G1 X124.431 Y67.058 E.11731
G1 X120.778 Y67.861 E.11726
G1 X117.07 Y67.899 E.11627
G1 X112.865 Y66.997 E.13484
G1 X109.426 Y65.397 E.11893
G1 X106.401 Y63.123 E.11868
G1 X103.921 Y60.277 E.11833
G1 X102.08 Y56.969 E.11871
M73 P1 R37
M73 Q1 S37
G1 X100.967 Y53.35 E.11872
G1 X100.63 Y49.58 E.11867
G1 X101.068 Y45.924 E.11546
M204 S1000
G1 X101.439 Y45.968 F10800
M204 S800
G1 F1200
G1 X102.614 Y42.485 E.11526
G1 X104.475 Y39.327 E.11493
G1 X106.946 Y36.62 E.11492
G1 X109.955 Y34.458 E.11617
G1 X113.308 Y32.982 E.11488
G1 X116.893 Y32.226 E.11486
G1 X120.566 Y32.224 E.11517
G1 X124.477 Y33.083 E.12553
G1 X127.843 Y34.645 E.11636
G1 X130.808 Y36.869 E.11621
G1 X133.239 Y39.652 E.11587
G1 X135.045 Y42.89 E.11624
G1 X136.139 Y46.432 E.11624
G1 X136.472 Y50.123 E.11619
G1 X136.041 Y53.76 E.11484
G1 X134.884 Y57.203 E.11388
G1 X133.033 Y60.363 E.11484
G1 X130.599 Y63.05 E.11367
G1 X127.636 Y65.206 E.11488
G1 X124.294 Y66.706 E.11486
G1 X120.717 Y67.488 E.11482
G1 X117.087 Y67.522 E.1138
G1 X113.004 Y66.646 E.13093
G1 X109.636 Y65.084 E.11642
G1 X106.672 Y62.86 E.11621
G1 X104.241 Y60.076 E.11587
G1 X102.434 Y56.839 E.11624
G1 X101.341 Y53.297 E.11625
G1 X101.007 Y49.605 E.11621
G1 X101.432 Y46.028 E.11296
M204 S1000
G1 X101.802 Y46.071 F10800
M204 S800
G1 F1200
G1 X102.949 Y42.659 E.11286
G1 X104.79 Y39.536 E.11369
G1 X107.211 Y36.889 E.11246
G1 X110.159 Y34.776 E.11371
G1 X113.442 Y33.335 E.11243
G1 X116.951 Y32.599 E.11242
G1 X120.545 Y32.601 E.11271
G1 X124.337 Y33.434 E.12171
G1 X127.633 Y34.958 E.11387
G1 X130.537 Y37.132 E.11374
G1 X132.919 Y39.854 E.1134
G1 X134.691 Y43.02 E.11377
G1 X135.765 Y46.486 E.11377
G1 X136.095 Y50.098 E.11373
G1 X135.677 Y53.659 E.11241
G1 X134.549 Y57.03 E.11145
G1 X132.74 Y60.124 E.11239
G1 X130.333 Y62.783 E.11244
G1 X127.431 Y64.889 E.11243
G1 X124.158 Y66.354 E.11242
G1 X120.656 Y67.116 E.11239
G1 X117.105 Y67.145 E.11133
G1 X113.144 Y66.295 E.12703
G1 X109.846 Y64.77 E.11391
G1 X106.942 Y62.596 E.11374
G1 X104.56 Y59.875 E.1134
G1 X102.789 Y56.708 E.11377
G1 X101.714 Y53.242 E.11377
G1 X101.384 Y49.629 E.11375
G1 X101.795 Y46.131 E.11045
M204 S1000
G1 X102.166 Y46.174 F10800
M204 S800
G1 F1200
G1 X103.284 Y42.833 E.11046
G1 X105.082 Y39.775 E.11123
G1 X107.447 Y37.184 E.11
G1 X110.329 Y35.114 E.11125
G1 X113.539 Y33.7 E.10998
G1 X116.97 Y32.977 E.10996
G1 X120.525 Y32.978 E.11145
G1 X124.198 Y33.785 E.1179
G1 X127.423 Y35.273 E.11138
G1 X130.267 Y37.396 E.11127
G1 X132.6 Y40.056 E.11093
G1 X134.337 Y43.151 E.11129
G1 X135.392 Y46.541 E.1113
G1 X135.719 Y50.075 E.11127
G1 X135.313 Y53.558 E.10997
G1 X134.213 Y56.857 E.10902
G1 X132.447 Y59.886 E.10996
G1 X130.095 Y62.489 E.11
G1 X127.258 Y64.553 E.10999
G1 X124.058 Y65.99 E.10998
G1 X120.633 Y66.739 E.10994
G1 X117.123 Y66.768 E.11007
G1 X113.283 Y65.944 E.12314
G1 X110.056 Y64.456 E.11141
G1 X107.213 Y62.332 E.11127
G1 X104.879 Y59.673 E.11093
G1 X103.143 Y56.577 E.11129
G1 X102.088 Y53.188 E.1113
G1 X101.761 Y49.653 E.11129
G1 X102.159 Y46.234 E.10795
M204 S1000
G1 X102.53 Y46.276 F10800
M204 S800
G1 F1200
G1 X103.619 Y43.007 E.10805
G1 X105.374 Y40.014 E.10877
G1 X107.683 Y37.478 E.10755
G1 X110.499 Y35.45 E.1088
G1 X113.636 Y34.065 E.10753
G1 X116.991 Y33.354 E.1075
G1 X120.465 Y33.351 E.10893
G1 X124.059 Y34.136 E.11535
G1 X127.214 Y35.587 E.10889
G1 X129.997 Y37.66 E.1088
G1 X132.281 Y40.258 E.10846
G1 X133.983 Y43.283 E.10882
G1 X135.018 Y46.596 E.10883
G1 X135.342 Y50.051 E.10881
G1 X134.949 Y53.458 E.10752
G1 X133.862 Y56.719 E.10779
G1 X132.131 Y59.679 E.10751
G1 X129.829 Y62.222 E.10756
G1 X127.053 Y64.236 E.10755
G1 X123.922 Y65.638 E.10754
G1 X120.572 Y66.366 E.1075
G1 X117.141 Y66.39 E.10759
G1 X113.421 Y65.593 E.11927
G1 X110.265 Y64.142 E.10891
G1 X107.482 Y62.068 E.1088
G1 X105.198 Y59.471 E.10846
G1 X103.497 Y56.446 E.10882
G1 X102.461 Y53.133 E.10883
G1 X102.138 Y49.677 E.10883
G1 X102.523 Y46.336 E.10545
M204 S1000
G1 X102.897 Y46.379 F10800
M204 S800
G1 F1200
G1 X103.97 Y43.145 E.10682
G1 X105.689 Y40.223 E.10631
G1 X107.948 Y37.747 E.10509
M73 P2 R37
G1 X110.703 Y35.768 E.10634
M73 Q2 S37
G1 X113.77 Y34.418 E.10508
G1 X117.049 Y33.727 E.10506
G1 X120.444 Y33.728 E.10645
G1 X123.92 Y34.487 E.11156
G1 X127.005 Y35.901 E.10641
G1 X129.727 Y37.924 E.10633
G1 X131.963 Y40.46 E.106
G1 X133.629 Y43.415 E.10635
G1 X134.644 Y46.651 E.10636
G1 X134.965 Y50.028 E.10635
G1 X134.585 Y53.358 E.10507
G1 X133.526 Y56.546 E.10534
G1 X131.839 Y59.44 E.10505
G1 X129.562 Y61.954 E.10632
G1 X126.848 Y63.919 E.10509
G1 X123.787 Y65.285 E.1051
G1 X120.512 Y65.993 E.10506
G1 X117.159 Y66.013 E.10512
G1 X113.559 Y65.241 E.11543
G1 X110.474 Y63.827 E.10642
G1 X107.752 Y61.804 E.10633
G1 X105.517 Y59.268 E.106
G1 X103.85 Y56.314 E.10635
G1 X102.835 Y53.077 E.10636
G1 X102.514 Y49.7 E.10636
G1 X102.89 Y46.439 E.10294
M204 S1000
G1 X103.261 Y46.481 F10800
M204 S800
G1 F1200
G1 X104.305 Y43.319 E.10441
G1 X105.981 Y40.462 E.10386
G1 X108.185 Y38.041 E.10263
G1 X110.874 Y36.105 E.10388
G1 X113.868 Y34.783 E.10264
G1 X117.069 Y34.104 E.1026
G1 X120.384 Y34.101 E.10394
G1 X123.782 Y34.839 E.10903
G1 X126.797 Y36.216 E.10392
G1 X129.458 Y38.189 E.10387
G1 X131.644 Y40.663 E.10353
G1 X133.275 Y43.547 E.10388
G1 X134.271 Y46.707 E.10389
G1 X134.588 Y50.006 E.10389
G1 X134.221 Y53.258 E.10262
G1 X133.19 Y56.374 E.1029
G1 X131.545 Y59.202 E.1026
G1 X129.325 Y61.66 E.10386
G1 X126.676 Y63.583 E.10263
G1 X123.651 Y64.933 E.10386
G1 X120.452 Y65.621 E.1026
G1 X117.178 Y65.636 E.10266
G1 X113.697 Y64.89 E.1116
G1 X110.683 Y63.512 E.10393
G1 X108.021 Y61.54 E.10387
G1 X105.835 Y59.065 E.10353
G1 X104.204 Y56.181 E.10388
G1 X103.208 Y53.021 E.10389
G1 X102.891 Y49.723 E.10389
G1 X103.254 Y46.541 E.10043
M204 S1000
G1 X103.625 Y46.582 F10800
M204 S800
G1 F1200
G1 X104.641 Y43.492 E.10199
G1 X106.274 Y40.7 E.1014
G1 X108.422 Y38.335 E.10018
G1 X111.044 Y36.442 E.10141
G1 X114.002 Y35.136 E.10139
G1 X117.127 Y34.477 E.10014
G1 X120.364 Y34.478 E.10147
G1 X123.644 Y35.19 E.10526
G1 X126.589 Y36.531 E.10144
M73 P2 R36
G1 X129.189 Y38.454 E.1014
G1 X131.326 Y40.867 E.10106
G1 X132.922 Y43.68 E.10141
G1 X133.898 Y46.764 E.10141
G1 X134.211 Y49.983 E.10141
G1 X133.849 Y53.196 E.10138
G1 X132.839 Y56.236 E.10044
G1 X131.23 Y58.995 E.10015
G1 X129.059 Y61.392 E.10141
G1 X126.471 Y63.266 E.10017
G1 X123.516 Y64.58 E.1014
G1 X120.392 Y65.248 E.10015
G1 X117.197 Y65.259 E.1002
G1 X113.835 Y64.538 E.1078
G1 X110.891 Y63.197 E.10144
G1 X108.29 Y61.275 E.1014
G1 X106.153 Y58.862 E.10106
G1 X104.557 Y56.049 E.10141
G1 X103.582 Y52.965 E.10141
G1 X103.268 Y49.745 E.10141
G1 X103.618 Y46.642 E.09793
M204 S1000
G1 X103.989 Y46.683 F10800
M204 S800
G1 F1200
G1 X104.977 Y43.665 E.09958
G1 X106.566 Y40.939 E.09894
G1 X108.659 Y38.629 E.09772
G1 X111.215 Y36.779 E.09895
G1 X114.1 Y35.5 E.09893
G1 X117.148 Y34.854 E.09769
G1 X120.304 Y34.851 E.09897
G1 X123.507 Y35.542 E.10274
G1 X126.381 Y36.847 E.09896
G1 X128.92 Y38.719 E.09893
G1 X131.008 Y41.07 E.0986
G1 X132.569 Y43.813 E.09894
G1 X133.524 Y46.821 E.09894
G1 X133.834 Y49.961 E.09894
G1 X133.484 Y53.096 E.09891
G1 X132.503 Y56.064 E.09799
G1 X130.937 Y58.757 E.0977
G1 X128.821 Y61.099 E.09895
G1 X126.299 Y62.93 E.09772
G1 X123.417 Y64.216 E.09894
G1 X120.371 Y64.871 E.09769
G1 X117.216 Y64.882 E.09894
G1 X113.972 Y64.187 E.10401
G1 X111.098 Y62.882 E.09896
G1 X108.559 Y61.009 E.09893
G1 X106.471 Y58.658 E.0986
G1 X104.911 Y55.915 E.09894
G1 X103.955 Y52.908 E.09894
G1 X103.645 Y49.767 E.09894
G1 X103.983 Y46.743 E.09542
M204 S1000
G1 X104.353 Y46.784 F10800
M204 S800
G1 F1200
G1 X105.313 Y43.837 E.09716
G1 X106.859 Y41.177 E.09647
G1 X108.925 Y38.897 E.09647
G1 X111.42 Y37.096 E.09647
G1 X114.234 Y35.853 E.09647
G1 X117.206 Y35.227 E.09523
G1 X120.284 Y35.228 E.0965
G1 X123.37 Y35.894 E.099
G1 X126.174 Y37.162 E.09648
G1 X128.652 Y38.985 E.09646
G1 X130.691 Y41.275 E.09613
G1 X132.215 Y43.947 E.09647
G1 X133.151 Y46.878 E.09647
G1 X133.457 Y49.94 E.09647
G1 X133.12 Y52.997 E.09645
G1 X132.167 Y55.892 E.09554
G1 X130.643 Y58.52 E.09525
G1 X128.583 Y60.806 E.09648
G1 X126.094 Y62.613 E.09647
G1 X123.282 Y63.863 E.09647
G1 X120.312 Y64.498 E.09523
G1 X117.235 Y64.505 E.09648
G1 X114.109 Y63.835 E.10024
M73 P3 R36
G1 X111.306 Y62.566 E.09648
G1 X108.827 Y60.744 E.09646
M73 Q3 S37
G1 X106.789 Y58.454 E.09613
G1 X105.264 Y55.782 E.09647
G1 X104.328 Y52.85 E.09647
G1 X104.022 Y49.789 E.09647
G1 X104.347 Y46.843 E.09291
M204 S1000
G1 X104.718 Y46.884 F10800
M204 S800
G1 F1200
G1 X105.649 Y44.009 E.09475
G1 X107.152 Y41.415 E.094
G1 X109.162 Y39.191 E.094
G1 X111.591 Y37.433 E.094
G1 X114.332 Y36.218 E.09401
G1 X117.226 Y35.604 E.09278
G1 X120.225 Y35.601 E.09401
G1 X123.234 Y36.246 E.09649
G1 X125.967 Y37.478 E.094
G1 X128.384 Y39.251 E.09399
G1 X130.373 Y41.479 E.09366
M73 Q3 S36
G1 X131.863 Y44.081 E.094
G1 X132.778 Y46.936 E.094
G1 X133.08 Y49.919 E.094
G1 X132.756 Y52.899 E.09399
G1 X131.83 Y55.72 E.09308
G1 X130.327 Y58.313 E.094
G1 X128.317 Y60.538 E.094
G1 X125.889 Y62.296 E.094
G1 X123.148 Y63.511 E.09401
G1 X120.253 Y64.125 E.09278
G1 X117.255 Y64.128 E.09401
G1 X114.246 Y63.483 E.09649
G1 X111.513 Y62.251 E.094
G1 X109.095 Y60.478 E.09399
G1 X107.106 Y58.249 E.09366
G1 X105.617 Y55.647 E.094
G1 X104.701 Y52.793 E.094
G1 X104.399 Y49.81 E.094
G1 X104.711 Y46.944 E.0904
M204 S1000
G1 X105.082 Y46.983 F10800
M204 S800
G1 F1200
G1 X105.985 Y44.18 E.09233
G1 X107.446 Y41.653 E.09153
G1 X109.4 Y39.484 E.09153
G1 X111.762 Y37.769 E.09153
G1 X114.429 Y36.583 E.09153
G1 X117.285 Y35.977 E.09153
G1 X120.204 Y35.978 E.09154
G1 X123.097 Y36.598 E.09277
G1 X125.76 Y37.794 E.09153
G1 X128.116 Y39.517 E.09152
G1 X130.056 Y41.684 E.09119
G1 X131.51 Y44.216 E.09153
G1 X132.405 Y46.994 E.09153
G1 X132.703 Y49.898 E.09153
G1 X132.391 Y52.801 E.09153
G1 X131.494 Y55.548 E.09062
G1 X130.033 Y58.076 E.09153
G1 X128.079 Y60.245 E.09153
G1 X125.717 Y61.959 E.09153
G1 X123.05 Y63.146 E.09153
G1 X120.194 Y63.752 E.09153
G1 X117.275 Y63.751 E.09154
G1 X114.382 Y63.13 E.09277
G1 X111.719 Y61.934 E.09153
G1 X109.363 Y60.211 E.09152
G1 X107.423 Y58.044 E.09119
G1 X105.97 Y55.513 E.09153
G1 X105.074 Y52.734 E.09153
G1 X104.776 Y49.83 E.09153
G1 X105.076 Y47.043 E.08789
M204 S1000
G1 X105.447 Y47.083 F10800
M204 S800
G1 F1200
G1 X106.322 Y44.351 E.08992
G1 X107.74 Y41.89 E.08906
G1 X109.638 Y39.777 E.08906
G1 X111.934 Y38.105 E.08906
G1 X114.528 Y36.947 E.08906
G1 X117.305 Y36.354 E.08906
G1 X120.146 Y36.351 E.08905
G1 X122.962 Y36.951 E.09028
G1 X125.554 Y38.111 E.08905
G1 X127.849 Y39.784 E.08905
G1 X129.74 Y41.89 E.08873
G1 X131.157 Y44.351 E.08906
G1 X132.032 Y47.053 E.08906
G1 X132.326 Y49.878 E.08906
G1 X132.026 Y52.703 E.08906
G1 X131.157 Y55.377 E.08816
G1 X129.74 Y57.839 E.08906
G1 X127.841 Y59.952 E.08906
G1 X125.545 Y61.623 E.08906
G1 X122.952 Y62.781 E.08906
G1 X120.174 Y63.375 E.08906
G1 X117.334 Y63.378 E.08905
G1 X114.518 Y62.778 E.09028
G1 X111.925 Y61.618 E.08905
G1 X109.63 Y59.944 E.08905
G1 X107.74 Y57.839 E.08873
G1 X106.322 Y55.377 E.08906
G1 X105.447 Y52.675 E.08906
G1 X105.153 Y49.85 E.08906
G1 X105.441 Y47.142 E.08538
M204 S1000
;WIPE_START
G1 F8640
G1 X106.322 Y44.351 E-.67577
G1 X106.504 Y44.035 E-.08423
;WIPE_END
G1 E-.04 F2100
G1 Z.6 F720
G1 X98.471 Y47.764 F10800
G1 Z.2 F720
G1 E.8 F2100
M204 S800
G1 F1200
G1 X98.71 Y50.442 E.0843
G1 X98.266 Y54.156 E.11728
G1 X97.081 Y57.672 E.11632
G1 X95.186 Y60.897 E.11727
G1 X92.698 Y63.639 E.11611
G1 X89.703 Y65.817 E.11611
G1 X86.292 Y67.354 E.11731
G1 X82.639 Y68.156 E.11726
G1 X78.931 Y68.194 E.11627
G1 X74.726 Y67.292 E.13484
G1 X71.287 Y65.693 E.11893
G1 X68.262 Y63.418 E.11868
G1 X65.782 Y60.573 E.11833
G1 X63.941 Y57.264 E.11871
G1 X62.828 Y53.645 E.11872
G1 X62.492 Y49.875 E.11867
